img/icons/setting_warning.svg

<svg height="14" viewBox="0 0 14 14" width="14" xmlns="http://www.w3.org/2000/svg"><g fill="none" fill-rule="evenodd"><path d="m8.4 0 .5 2.4 2.1-1.3 2 2-1.4 2.1 2.4.4v2.8l-1.454.303-.566-.926 1.02-.177v-1.2l-2.133-.444-.544-.891 1.277-1.965-.8-.8-2 1.3-.7-.2-.5-2.4h-1.2l-.5 2.4-.7.3-2-1.3-.9.8 1.3 2-.2.7-2.4.5v1.2l2.4.5.3.8-1.3 2 .8.8 2-1.3.537.202-.63 1.031-.007-.033-2.1 1.3-2-2 1.4-2.1-2.4-.4v-2.8l2.4-.5-1.3-2.1 2-2 2.1 1.4.4-2.4zm-1.4 5c.67587719 0 1.2762486.33977602 1.63873766.85695149l-.64373766 1.05104851-.00104956-.03343732c-.05211371-.52966472-.43680758-.87456268-.99395044-.87456268-.6 0-1 .4-1 1s.4 1 1 1c.13104396 0 .25254762-.01908058.36242734-.05515807l-.63417775 1.03663198c-.97268437-.13362387-1.72824959-.9735972-1.72824959-1.98147391 0-1.1.9-2 2-2z" fill="#858585" fill-rule="nonzero"/><path d="m9.72222222 6 4.27777778 7h-8.55555556zm.50298228 5.3491812h-1.00000003v1.0127601h1.00000003zm0-3.24095955h-1.00000003v2.40122725h1.00000003z" fill="#ff806a"/></g></svg>

<?xml version="1.0" encoding="UTF-8"?>
<svg width="14px" height="14px" viewBox="0 0 14 14" version="1.1" xmlns="http://www.w3.org/2000/svg" xmlns:xlink="http://www.w3.org/1999/xlink">
    <title>setting_warning</title>
    <g id="Icon" stroke="none" stroke-width="1" fill="none" fill-rule="evenodd">
        <g id="Visual-Studio" transform="translate(-131.000000, -182.000000)">
            <g id="setting_warning" transform="translate(131.000000, 182.000000)">
                <path d="M8.4,0 L8.9,2.4 L11,1.1 L13,3.1 L11.6,5.2 L14,5.6 L14,8.4 L12.546,8.703 L11.98,7.777 L13,7.6 L13,6.4 L10.867,5.956 L10.323,5.065 L11.6,3.1 L10.8,2.3 L8.8,3.6 L8.1,3.4 L7.6,1 L6.4,1 L5.9,3.4 L5.2,3.7 L3.2,2.4 L2.3,3.2 L3.6,5.2 L3.4,5.9 L1,6.4 L1,7.6 L3.4,8.1 L3.7,8.9 L2.4,10.9 L3.2,11.7 L5.2,10.4 L5.737,10.602 L5.107,11.633 L5.1,11.6 L3,12.9 L1,10.9 L2.4,8.8 L0,8.4 L0,5.6 L2.4,5.1 L1.1,3 L3.1,1 L5.2,2.4 L5.6,0 L8.4,0 Z M7,5 C7.67587719,5 8.2762486,5.33977602 8.63873766,5.85695149 L7.995,6.908 L7.99395044,6.87456268 C7.94183673,6.34489796 7.55714286,6 7,6 C6.4,6 6,6.4 6,7 C6,7.6 6.4,8 7,8 C7.13104396,8 7.25254762,7.98091942 7.36242734,7.94484193 L6.72824959,8.98147391 C5.75556522,8.84785004 5,8.00787671 5,7 C5,5.9 5.9,5 7,5 Z" id="形状" fill="#858585" fill-rule="nonzero"></path>
                <path d="M9.72222222,6 L14,13 L5.44444444,13 L9.72222222,6 Z M10.2252045,11.3491812 L9.22520447,11.3491812 L9.22520447,12.3619413 L10.2252045,12.3619413 L10.2252045,11.3491812 Z M10.2252045,8.10822165 L9.22520447,8.10822165 L9.22520447,10.5094489 L10.2252045,10.5094489 L10.2252045,8.10822165 Z" id="形状结合" fill="#FF806A"></path>
            </g>
        </g>
    </g>
</svg>
